X:1
T: 22nd of March
C:
R:Reel
I:speed 232
Q:232
K:G
M:4/4
L:1/8
|:D2|DG GG GB df|gf ga gd BG|FG AB ce dB|A2A2 A2D2|
DG GG GB df|gf ga gd BG|FG AB ce dB|G2G2 G2:|
|:DC|B,D GD BG BG|FG AB cB cd|ef ge fg af|gb gd BG DC|
B,D GD BG BG|FG AB cB cd|ef ge fg af|g2b2 g2:|
